_inc/images/systems/logos/sonic-the-hedgehog.svg

<svg version="1.0" viewBox="0 0 600 277" xmlns="http://www.w3.org/2000/svg">
    <path d="M543.971 1.03c16.191-1.419 31.605-.768 46.059 1.23 0 0 4.11 1.59 2.391 1.197-4.332 14.694-9.306 29.367-13.158 44.862-21.87-28.92-74.883 23.832-44.268 40.077 9.219 4.875 22.47 4.056 29.91-1.794 4.188-3.312 8.133-7.722 11.367-11.964 5.814 17.232 10.932 34.316 16.149 52.04-17.889 2.412-39.573 8.547-59.814 4.188-73.632-15.87-65.109-123.164 11.364-129.836Zm-492.86.033c13.383-.99 27.123.825 37.683 2.394 6.114.897 18.657 3.924 17.349 3.588a1080.573 1080.573 0 0 0-8.376 29.907c-8.67-1.287-44.283-5.193-48.45 1.197-1.44 2.169-1.008 4.806-.6 7.776 1.929 6.498 35.367 4.32 46.659 12.564 6.279 4.578 10.932 11.382 12.561 20.934 5.274 30.941-15.813 51.239-42.468 53.243-14.955 1.101-29.703-.171-43.668-1.197-5.664-.435-12.393-1.65-17.943-2.4 0-.036.075-1.773 0-1.794 2.598-9.57 5.457-20.619 8.373-30.506 9.888 1.461 41.517 4.263 46.656-2.391 1.161-1.533 2.976-5.4.6-7.776-4.269-4.272-10.911-3.48-17.148-4.272C19.491 79.423 2.643 76.789.267 50.113c-1.176-13.14 1.59-23.388 7.179-31.107 8.823-12.243 23.91-16.5 43.665-17.943ZM266.775.835h55.112l35.289 65.421V.835h41.274v132.011l-57.273-.039-32.448-66.551v66.59l-41.954-.039s.065-119.228 0-131.972Z" style="fill:#fff"/>
    <path d="M420.017.835h48.51l-.054 131.552h-48.456V.835ZM214.53 65.038c-2.058 11.775-17.223 26.61-29.163 28.581-9.915 1.62-16.698-.987-21.582-5.835-17.388-17.241 10.482-45.366 26.832-47.829 14.82-2.244 26.502 10.131 23.913 25.083Zm37.329-23.334C242.403 15.619 218.523-2.534 180.117.289c-23.586 1.716-43.707 15.279-53.079 31.497-7.656 13.218-12.486 33.909-7.581 53.082 16.53 64.718 118.422 63.86 134.154-2.334 3.006-12.702 2.424-29.31-1.752-40.83Z" style="fill:#fff"/>
    <path d="M597.728 174.726c4.194-30.345 5.64-33.138-23.829-37.842-32.319-5.16-35.079 2.97-45.957 49.536-7.392 31.632-6.276 49.929 17.598 54.66 23.094 4.575 28.482 4.38 32.313 4.62 4.593.291 5.958.783 7.239-6.594.33-1.908 9.792-48.036 9.792-48.036l-31.911-5.094-3.327 15.969 10.728 1.713-.684 3.279c-5.349 23.325-3.258 22.197-14.913 19.722-9.012-1.914-8.775-10.692-2.79-38.463 7.866-36.51 8.808-36.9 18.18-35.406 8.421 1.347 10.182 1.716 7.653 18.321l19.908 3.615Zm-117.711 8.037c5.52-27.543 8.559-36.357 16.911-36.102 8.607.261 8.094 9.156 2.574 36.699-5.523 27.546-8.559 36.357-17.169 36.09-8.349-.252-7.839-9.144-2.316-36.687Zm41.505 1.269c5.574-27.822 8.805-52.185-21.309-53.103-27.966-.858-35.82 19.26-42.213 51.162-6.399 31.896-6.657 52.248 21.306 53.103 30.12.924 36.636-23.34 42.216-51.162Zm-132.213 46.404 19.302-2.25 6.489-37.455 15.264-1.233-6.435 37.581 19.941-.681 14.823-90.297-19.647 1.494-5.652 33.783-15.261 1.212 5.844-34.266-19.506 2.328-15.162 89.784Zm-48.027 5.25 43.953-5.337 2.421-16.959-26.553 3.705 2.859-19.443 23.883-4.131 2.397-16.17-23.91 3.984 2.487-17.208 25.947-5.121 2.4-17.073-43.509 7.842-12.375 85.911Zm3.057-59.292c1.443-9.507 3.183-26.961-19.308-23.373-24.669 3.936-29.034 22.041-33.198 49.503-3.969 26.172-3.231 41.283 15.321 38.322 6.738-1.071 13.587-4.227 17.421-12.168l.207-.033-.798 7.914 11.919-1.902 6.822-44.949-24.354 3.888-1.998 13.143 8.187-1.308-.408 2.7c-1.743 11.502-4.743 17.937-10.65 18.879-6.945 1.107-6.858-6.12-3.384-29.007 3.381-22.299 5.454-30.645 12.609-31.788 6.423-1.023 5.643 7.458 4.824 12.858l16.788-2.679Zm-86.021 6.681 4.872-1.35c9.224-2.559 9.839 2.253 6.74 21.546-3.81 23.733-7.161 27.945-15.246 30.186l-4.664 1.293 8.298-51.675Zm-27.915 70.251 24.042-6.663c22.907-6.351 28.481-20.715 33.092-49.437 4.416-27.501-1.413-34.998-18.615-30.228l-25.808 7.152-12.711 79.176Zm-46.893 10.386 39.555-9.453 2.769-14.868-19.635 4.692 3.318-17.82 16.554-3.957 2.772-14.868-16.557 3.957 2.913-15.636 18.336-4.38 2.769-14.868-38.25 9.138-14.544 78.063Zm-56.949 12.894 16.968-4.074 6.336-32.565 13.53-3.246-6.333 32.562 16.971-4.074 14.826-76.23-16.968 4.074-5.544 28.506-13.536 3.246 5.547-28.506-16.968 4.074-14.829 76.233Zm2.226-130.626-39.081 7.047-3.276 13.23 14.586-2.757-8.712 35.928 12.78-3.123 8.424-35.301 12-2.196 3.279-12.828Zm23.958-4.272-3.927 17.295-8.409 1.803 3.903-17.679-11.919 2.007-10.551 47.592 12.18-2.814 3.546-16.176 8.358-1.929-3.507 16.182 11.814-2.673 10.395-45.555-11.883 1.947Zm38.91 9.372-1.632 7.851-11.904 2.085-1.734 8.214 11.472-2.205-1.953 11.31-24.861 5.457 8.511-44.826 24.861-3.912-1.809 8.457-10.845 1.998-1.734 7.17 11.628-1.599Z" style="fill:#fff"/>
</svg>

<?xml version="1.0" encoding="utf-8"?>
<svg version="1.0" viewBox="0 0 600 277" xmlns="http://www.w3.org/2000/svg">
  <g>
    <path d="M 543.971 1.03 C 560.162 -0.389 575.576 0.262 590.03 2.26 C 590.03 2.26 594.14 3.85 592.421 3.457 C 588.089 18.151 583.115 32.824 579.263 48.319 C 557.393 19.399 504.38 72.151 534.995 88.396 C 544.214 93.271 557.465 92.452 564.905 86.602 C 569.093 83.29 573.038 78.88 576.272 74.638 C 582.086 91.87 587.204 108.954 592.421 126.678 C 574.532 129.09 552.848 135.225 532.607 130.866 C 458.975 114.996 467.498 7.702 543.971 1.03 L 543.971 1.03 Z" style="fill: rgb(255, 255, 255);"/>
    <path d="M 51.111 1.063 C 64.494 0.073 78.234 1.888 88.794 3.457 C 94.908 4.354 107.451 7.381 106.143 7.045 C 103.224 16.933 100.44 26.839 97.767 36.952 C 89.097 35.665 53.484 31.759 49.317 38.149 C 47.877 40.318 48.309 42.955 48.717 45.925 C 50.646 52.423 84.084 50.245 95.376 58.489 C 101.655 63.067 106.308 69.871 107.937 79.423 C 113.211 110.364 92.124 130.662 65.469 132.666 C 50.514 133.767 35.766 132.495 21.801 131.469 C 16.137 131.034 9.408 129.819 3.858 129.069 C 3.858 129.033 3.933 127.296 3.858 127.275 C 6.456 117.705 9.315 106.656 12.231 96.769 C 22.119 98.23 53.748 101.032 58.887 94.378 C 60.048 92.845 61.863 88.978 59.487 86.602 C 55.218 82.33 48.576 83.122 42.339 82.33 C 19.491 79.423 2.643 76.789 0.267 50.113 C -0.909 36.973 1.857 26.725 7.446 19.006 C 16.269 6.763 31.356 2.506 51.111 1.063 L 51.111 1.063 Z" style="fill: rgb(255, 255, 255);"/>
    <path d="M 266.775 0.835 C 284.327 0.835 321.887 0.835 321.887 0.835 C 321.887 0.835 357.176 66.256 357.176 66.256 C 357.176 66.256 357.176 0.835 357.176 0.835 C 357.176 0.835 398.45 0.835 398.45 0.835 C 398.45 0.835 398.45 132.846 398.45 132.846 C 398.45 132.846 341.177 132.807 341.177 132.807 C 341.177 132.807 308.729 66.256 308.729 66.256 C 308.729 66.256 308.729 132.846 308.729 132.846 C 308.729 132.846 266.775 132.807 266.775 132.807 C 266.775 132.807 266.84 13.579 266.775 0.835 L 266.775 0.835 Z" style="fill: rgb(255, 255, 255);"/>
    <path d="M 420.017 0.835 C 420.017 0.835 468.527 0.835 468.527 0.835 C 468.527 0.835 468.473 132.387 468.473 132.387 C 468.473 132.387 420.017 132.387 420.017 132.387 C 420.017 132.387 420.017 0.835 420.017 0.835 L 420.017 0.835 Z" style="fill: rgb(255, 255, 255);"/>
    <path d="M 214.53 65.038 C 212.472 76.813 197.307 91.648 185.367 93.619 C 175.452 95.239 168.669 92.632 163.785 87.784 C 146.397 70.543 174.267 42.418 190.617 39.955 C 205.437 37.711 217.119 50.086 214.53 65.038 L 214.53 65.038 Z M 251.859 41.704 C 242.403 15.619 218.523 -2.534 180.117 0.289 C 156.531 2.005 136.41 15.568 127.038 31.786 C 119.382 45.004 114.552 65.695 119.457 84.868 C 135.987 149.586 237.879 148.728 253.611 82.534 C 256.617 69.832 256.035 53.224 251.859 41.704 L 251.859 41.704 Z" style="fill: rgb(255, 255, 255);"/>
    <path d="M 597.728 174.726 C 601.922 144.381 603.368 141.588 573.899 136.884 C 541.58 131.724 538.82 139.854 527.942 186.42 C 520.55 218.052 521.666 236.349 545.54 241.08 C 568.634 245.655 574.022 245.46 577.853 245.7 C 582.446 245.991 583.811 246.483 585.092 239.106 C 585.422 237.198 594.884 191.07 594.884 191.07 C 594.884 191.07 562.973 185.976 562.973 185.976 C 562.973 185.976 559.646 201.945 559.646 201.945 C 559.646 201.945 570.374 203.658 570.374 203.658 C 570.374 203.658 569.69 206.937 569.69 206.937 C 564.341 230.262 566.432 229.134 554.777 226.659 C 545.765 224.745 546.002 215.967 551.987 188.196 C 559.853 151.686 560.795 151.296 570.167 152.79 C 578.588 154.137 580.349 154.506 577.82 171.111 C 577.82 171.111 597.728 174.726 597.728 174.726 L 597.728 174.726 Z M 480.017 182.763 C 485.537 155.22 488.576 146.406 496.928 146.661 C 505.535 146.922 505.022 155.817 499.502 183.36 C 493.979 210.906 490.943 219.717 482.333 219.45 C 473.984 219.198 474.494 210.306 480.017 182.763 L 480.017 182.763 Z M 521.522 184.032 C 527.096 156.21 530.327 131.847 500.213 130.929 C 472.247 130.071 464.393 150.189 458 182.091 C 451.601 213.987 451.343 234.339 479.306 235.194 C 509.426 236.118 515.942 211.854 521.522 184.032 L 521.522 184.032 Z M 389.309 230.436 C 389.309 230.436 408.611 228.186 408.611 228.186 C 408.611 228.186 415.1 190.731 415.1 190.731 C 415.1 190.731 430.364 189.498 430.364 189.498 C 430.364 189.498 423.929 227.079 423.929 227.079 C 423.929 227.079 443.87 226.398 443.87 226.398 C 443.87 226.398 458.693 136.101 458.693 136.101 C 458.693 136.101 439.046 137.595 439.046 137.595 C 439.046 137.595 433.394 171.378 433.394 171.378 C 433.394 171.378 418.133 172.59 418.133 172.59 C 418.133 172.59 423.977 138.324 423.977 138.324 C 423.977 138.324 404.471 140.652 404.471 140.652 C 404.471 140.652 389.309 230.436 389.309 230.436 L 389.309 230.436 Z M 341.282 235.686 C 341.282 235.686 385.235 230.349 385.235 230.349 C 385.235 230.349 387.656 213.39 387.656 213.39 C 387.656 213.39 361.103 217.095 361.103 217.095 C 361.103 217.095 363.962 197.652 363.962 197.652 C 363.962 197.652 387.845 193.521 387.845 193.521 C 387.845 193.521 390.242 177.351 390.242 177.351 C 390.242 177.351 366.332 181.335 366.332 181.335 C 366.332 181.335 368.819 164.127 368.819 164.127 C 368.819 164.127 394.766 159.006 394.766 159.006 C 394.766 159.006 397.166 141.933 397.166 141.933 C 397.166 141.933 353.657 149.775 353.657 149.775 C 353.657 149.775 341.282 235.686 341.282 235.686 L 341.282 235.686 Z M 344.339 176.394 C 345.782 166.887 347.522 149.433 325.031 153.021 C 300.362 156.957 295.997 175.062 291.833 202.524 C 287.864 228.696 288.602 243.807 307.154 240.846 C 313.892 239.775 320.741 236.619 324.575 228.678 C 324.575 228.678 324.782 228.645 324.782 228.645 C 324.782 228.645 323.984 236.559 323.984 236.559 C 323.984 236.559 335.903 234.657 335.903 234.657 C 335.903 234.657 342.725 189.708 342.725 189.708 C 342.725 189.708 318.371 193.596 318.371 193.596 C 318.371 193.596 316.373 206.739 316.373 206.739 C 316.373 206.739 324.56 205.431 324.56 205.431 C 324.56 205.431 324.152 208.131 324.152 208.131 C 322.409 219.633 319.409 226.068 313.502 227.01 C 306.557 228.117 306.644 220.89 310.118 198.003 C 313.499 175.704 315.572 167.358 322.727 166.215 C 329.15 165.192 328.37 173.673 327.551 179.073 C 327.551 179.073 344.339 176.394 344.339 176.394 L 344.339 176.394 Z M 258.318 183.075 C 258.318 183.075 263.19 181.725 263.19 181.725 C 272.414 179.166 273.029 183.978 269.93 203.271 C 266.12 227.004 262.769 231.216 254.684 233.457 C 254.684 233.457 250.02 234.75 250.02 234.75 C 250.02 234.75 258.318 183.075 258.318 183.075 L 258.318 183.075 Z M 230.403 253.326 C 230.403 253.326 254.445 246.663 254.445 246.663 C 277.352 240.312 282.926 225.948 287.537 197.226 C 291.953 169.725 286.124 162.228 268.922 166.998 C 268.922 166.998 243.114 174.15 243.114 174.15 C 243.114 174.15 230.403 253.326 230.403 253.326 L 230.403 253.326 Z M 183.51 263.712 C 183.51 263.712 223.065 254.259 223.065 254.259 C 223.065 254.259 225.834 239.391 225.834 239.391 C 225.834 239.391 206.199 244.083 206.199 244.083 C 206.199 244.083 209.517 226.263 209.517 226.263 C 209.517 226.263 226.071 222.306 226.071 222.306 C 226.071 222.306 228.843 207.438 228.843 207.438 C 228.843 207.438 212.286 211.395 212.286 211.395 C 212.286 211.395 215.199 195.759 215.199 195.759 C 215.199 195.759 233.535 191.379 233.535 191.379 C 233.535 191.379 236.304 176.511 236.304 176.511 C 236.304 176.511 198.054 185.649 198.054 185.649 C 198.054 185.649 183.51 263.712 183.51 263.712 L 183.51 263.712 Z M 126.561 276.606 C 126.561 276.606 143.529 272.532 143.529 272.532 C 143.529 272.532 149.865 239.967 149.865 239.967 C 149.865 239.967 163.395 236.721 163.395 236.721 C 163.395 236.721 157.062 269.283 157.062 269.283 C 157.062 269.283 174.033 265.209 174.033 265.209 C 174.033 265.209 188.859 188.979 188.859 188.979 C 188.859 188.979 171.891 193.053 171.891 193.053 C 171.891 193.053 166.347 221.559 166.347 221.559 C 166.347 221.559 152.811 224.805 152.811 224.805 C 152.811 224.805 158.358 196.299 158.358 196.299 C 158.358 196.299 141.39 200.373 141.39 200.373 C 141.39 200.373 126.561 276.606 126.561 276.606 L 126.561 276.606 Z M 128.787 145.98 C 128.787 145.98 89.706 153.027 89.706 153.027 C 89.706 153.027 86.43 166.257 86.43 166.257 C 86.43 166.257 101.016 163.5 101.016 163.5 C 101.016 163.5 92.304 199.428 92.304 199.428 C 92.304 199.428 105.084 196.305 105.084 196.305 C 105.084 196.305 113.508 161.004 113.508 161.004 C 113.508 161.004 125.508 158.808 125.508 158.808 C 125.508 158.808 128.787 145.98 128.787 145.98 L 128.787 145.98 Z M 152.745 141.708 C 152.745 141.708 148.818 159.003 148.818 159.003 C 148.818 159.003 140.409 160.806 140.409 160.806 C 140.409 160.806 144.312 143.127 144.312 143.127 C 144.312 143.127 132.393 145.134 132.393 145.134 C 132.393 145.134 121.842 192.726 121.842 192.726 C 121.842 192.726 134.022 189.912 134.022 189.912 C 134.022 189.912 137.568 173.736 137.568 173.736 C 137.568 173.736 145.926 171.807 145.926 171.807 C 145.926 171.807 142.419 187.989 142.419 187.989 C 142.419 187.989 154.233 185.316 154.233 185.316 C 154.233 185.316 164.628 139.761 164.628 139.761 C 164.628 139.761 152.745 141.708 152.745 141.708 L 152.745 141.708 Z M 191.655 151.08 C 191.655 151.08 190.023 158.931 190.023 158.931 C 190.023 158.931 178.119 161.016 178.119 161.016 C 178.119 161.016 176.385 169.23 176.385 169.23 C 176.385 169.23 187.857 167.025 187.857 167.025 C 187.857 167.025 185.904 178.335 185.904 178.335 C 185.904 178.335 161.043 183.792 161.043 183.792 C 161.043 183.792 169.554 138.966 169.554 138.966 C 169.554 138.966 194.415 135.054 194.415 135.054 C 194.415 135.054 192.606 143.511 192.606 143.511 C 192.606 143.511 181.761 145.509 181.761 145.509 C 181.761 145.509 180.027 152.679 180.027 152.679 C 180.027 152.679 191.655 151.08 191.655 151.08 L 191.655 151.08 Z" style="fill: rgb(255, 255, 255);"/>
  </g>
</svg>
